public/static/img/crypto/KRW.svg

<svg width="32" height="32" viewBox="0 0 32 32" fill="none" xmlns="http://www.w3.org/2000/svg">
<g clip-path="url(#clip0_696_7342)">
<g clip-path="url(#clip1_696_7342)">
<g clip-path="url(#clip2_696_7342)">
<path d="M15.9824 0C24.8099 0 31.9649 7.15594 31.9649 15.9824C31.9649 24.8088 24.8099 31.9659 15.9824 31.9659C7.155 31.9659 0 24.8089 0 15.9824C0 7.15594 7.155 0 15.9824 0Z" fill="#F0F0F0"/>
<path d="M21.5416 15.9825C21.5416 17.373 19.0525 20.8468 15.9815 20.8468C12.9125 20.8468 10.4235 17.373 10.4235 15.9825C10.4235 12.9124 12.9125 10.4233 15.9815 10.4233C19.0525 10.4233 21.5416 12.9125 21.5416 15.9825Z" fill="#D80027"/>
<path d="M21.5416 15.9824C21.5416 19.0545 19.0525 21.5425 15.9815 21.5425C12.9125 21.5425 10.4235 19.0545 10.4235 15.9824" fill="#0052B4"/>
<path d="M21.8788 20.8972L23.3539 19.4232L24.3357 20.4058L22.8616 21.8799L21.8788 20.8972ZM19.421 23.3541L20.8961 21.8799L21.8788 22.8627L20.4038 24.3368L19.421 23.3541ZM24.828 23.8444L26.3011 22.3703L27.2828 23.353L25.8108 24.8272L24.828 23.8444ZM22.3703 26.3012L23.8453 24.8272L24.827 25.8099L23.353 27.284L22.3703 26.3012ZM23.353 22.3703L24.828 20.8962L25.8097 21.879L24.3357 23.353L23.353 22.3703ZM23.3543 24.3347L21.8802 25.8088L20.8975 24.8261L22.3716 23.3521L23.3543 24.3347ZM24.828 11.069L20.8971 7.13696L21.8798 6.15534L25.8108 10.0862L24.828 11.069ZM20.8971 10.0872L19.422 8.61315L20.4047 7.63043L21.8798 9.1045L20.8971 10.0872ZM23.3539 12.543L21.8788 11.069L22.8616 10.0862L24.3366 11.5603L23.3539 12.543ZM23.3518 4.68203L24.8259 6.15609L23.8431 7.13878L22.3691 5.66471L23.3518 4.68203ZM26.3021 9.59587L24.827 8.12181L25.8097 7.139L27.2848 8.61315L26.3021 9.59587ZM5.6638 22.3714L9.59571 26.3022L8.61099 27.285L4.68112 23.3541L5.6638 22.3714ZM9.59474 23.353L11.0679 24.8272L10.0872 25.8099L8.61202 24.3357L9.59474 23.353ZM7.13787 20.8962L8.61299 22.3703L7.63027 23.353L6.15518 21.879L7.13787 20.8962ZM8.61202 19.4221L12.5439 23.353L11.5592 24.3357L7.62924 20.4049L8.61202 19.4221ZM9.59474 5.66396L5.66274 9.59481L4.68005 8.61209L8.61202 4.68115L9.59474 5.66396ZM6.15409 10.0862L10.085 6.15528L11.0677 7.13803L7.13684 11.069L6.15409 10.0862ZM12.5439 8.61315L8.61202 12.5451L7.62924 11.5613L11.5612 7.63043L12.5439 8.61315Z" fill="black"/>
</g>
</g>
</g>
<defs>
<clipPath id="clip0_696_7342">
<rect width="32" height="32" fill="white"/>
</clipPath>
<clipPath id="clip1_696_7342">
<rect width="32" height="32" fill="white"/>
</clipPath>
<clipPath id="clip2_696_7342">
<rect width="32" height="32" fill="white"/>
</clipPath>
</defs>
</svg>

<svg width="32" height="32" fill="none" xmlns="http://www.w3.org/2000/svg"><g clip-path="url(#a)"><g clip-path="url(#b)"><g clip-path="url(#c)"><path d="M15.982 0c8.828 0 15.983 7.156 15.983 15.982 0 8.827-7.155 15.984-15.983 15.984C7.155 31.966 0 24.809 0 15.982 0 7.156 7.155 0 15.982 0Z" fill="#F0F0F0"/><path d="M21.542 15.982c0 1.391-2.49 4.865-5.56 4.865-3.07 0-5.558-3.474-5.558-4.865a5.56 5.56 0 1 1 11.118 0Z" fill="#D80027"/><path d="M21.542 15.982a5.56 5.56 0 1 1-11.119 0" fill="#0052B4"/><path d="m21.879 20.897 1.475-1.474.982.983-1.474 1.474-.983-.983Zm-2.458 2.457 1.475-1.474.983.983-1.475 1.474-.983-.983Zm5.407.49 1.473-1.474.982.983-1.472 1.474-.983-.983Zm-2.458 2.457 1.475-1.474.982.983-1.474 1.474-.983-.983Zm.983-3.93 1.475-1.475.982.983-1.474 1.474-.983-.983Zm.001 1.964-1.474 1.474-.982-.983 1.474-1.474.982.983Zm1.474-13.266-3.93-3.932.982-.982 3.93 3.931-.982.983Zm-3.93-.982-1.476-1.474.983-.983 1.475 1.474-.983.983Zm2.456 2.456-1.475-1.474.983-.983 1.475 1.474-.983.983Zm-.002-7.861 1.474 1.474-.983.983-1.474-1.474.983-.983Zm2.95 4.914-1.475-1.474.983-.983 1.475 1.474-.983.983ZM5.664 22.37l3.932 3.931-.985.983-3.93-3.93.983-.984Zm3.93.982 1.474 1.474-.98.983-1.476-1.474.983-.983Zm-2.456-2.457 1.475 1.474-.983.983-1.475-1.474.983-.983Zm1.474-1.474 3.932 3.931-.985.983-3.93-3.931.983-.983Zm.983-13.758-3.932 3.93-.983-.982 3.932-3.93.983.982Zm-3.44 4.422 3.93-3.93.983.982-3.931 3.931-.983-.983Zm6.389-1.473-3.932 3.932-.983-.984 3.932-3.93.983.982Z" fill="#000"/></g></g></g><defs><clipPath id="a"><path fill="#fff" d="M0 0h32v32H0z"/></clipPath><clipPath id="b"><path fill="#fff" d="M0 0h32v32H0z"/></clipPath><clipPath id="c"><path fill="#fff" d="M0 0h32v32H0z"/></clipPath></defs></svg>
